X:1
T:Binks’ Waltz.
T:Binks’ Waltz.
T:SCOTT  JOPLIN.
T:“Maple Leaf Rag” “Cascades” Etc.
T:Composer of
T:Public Domain
T:Public Domain
T:Public Domain
T:Public Domain
T:Public Domain
T:Public Domain
C:Scott Joplin
Z:Public Domain
%%score { ( 1 3 ) | ( 2 4 ) }
L:1/8
Q:1/4=144
M:3/4
K:Bb
V:1 treble nm="Piano" snm="Pno."
V:3 treble 
V:2 bass 
V:4 bass 
V:1
"^Andante.."!mp! (B,D^CDFG) |!<(! (B,D^CDFG)!<)! |!<(! BBBBBB!<)! |!>(! A4 F2!>)! |: %4
!mp! .B.d.d.f.f.F | (G4 F2) | .B.d.d.f.f.F | (G4 F2) |!<(! [ge'g']2 [ge'g']3 [_ge'_g']!<)! | %9
!<(! [fe'f']2 [cc']2 [^c^c']2!<)! |[Q:1/4=130]"_rit." [dfd']2 [Beb]2 [GBg]2 | [FBf]4 F2 | %12
!mp![Q:1/4=144]"_a tempo" .B.d.d.f.f.F | (G4 F2) | .B.d.d.f.f.d | %15
[Q:1/4=130]"_rit." (([^Gd]4 [Ac]2)) |[Q:1/4=144]"_a tempo"!<(! [dbd']2 [dbd']3 [_db_d']!<)! | %17
!mf! [cbc']2 [gbg']3 [ac'a'] | [faf']6- |[Q:1/4=120]"_rit." [faf']2 (G2 A2) | %20
!mp![Q:1/4=144]"_a tempo" .B.d.d.f.f.F | (G4 F2) | .B.d.d.f.f.F | (G4 F2) | %24
!<(! [ge'g']2 [ge'g']3 [_ge'_g']!<)! |!<(! [fe'f']2 [cc']2 [^c^c']2!<)! | %26
[Q:1/4=130]"_rit." [dd']2!>(! (f^cdA)!>)! |!mp! (B4 F2) |[Q:1/4=144]"^a tempo" _GBBcc_G | F4 F2 | %30
 _GBBcc_G |!>(! F2 !>![_ABf]2 !>![GBe]2!>)! |!f! d2 B3 d | c2 c3 d |1 [DB]6- | [DB]2 (G2 A2) :|2 %36
 [DB]6- | [DB]2 [dd']2 [dd']2 |: [bb']2 [gg']4 | [gg']2 [ee']4 |!mf! [dd'][ee'][dd'][ee'] [dd']2 | %41
 [dd'][ee'][dd'][ee'] [dd']2 | [bb']2 [gg']4 | [aa']2 [^f^f']4 | %44
 [aa'][=b=b'][aa'][gg'][^f^f'][=e=e'] | [d^fad']6 | [bb']2 [gg']4 | [gg']2 [ee']4 | %48
!mp! [dd'][ee'][dd'][ee'] [dd']2 | [dd'][ee'][dd'][ee'] [dd']2 | [ee']2 [gg']4 | [dd']2 [gg']4 | %52
 [dd'][ee'][dd'][cc'][Bb][Aa] |1!mp! [Gg][Aa][Bb][cc'][dd'][gg'] :|2!>(! [Gg]4 A2!>)! || %55
!mp! .B.d.d.f.f.F | (G4 F2) | .B.d.d.f.f.F | (G4 F2) |!<(! [ge'g']2 [ge'g']3 [_ge'_g']!<)! | %60
!<(! [fe'f']2 [cc']2 [^c^c']2!<)! | %61
[Q:1/4=130]"_rit.          poco  a  poco"!<(! [dfd']2 [Beb]2 [GBg]2!<)! |!mp!!>(! [FBf]4 F2!>)! | %63
[Q:1/4=144]"_a tempo" .B.d.d.f.f.F | (G4 F2) | .B.d.d.f.f.d |[Q:1/4=130]"_rit." (([^Gd]4 [Ac]2)) | %67
[Q:1/4=144]"_a tempo"!<(! [dbd']2 [dbd']3 [_db_d']!<)! |!mf! [cbc']2 [gbg']3 [ac'a'] | [faf']6- | %70
[Q:1/4=130]"_rit."!>(! [faf']2 G2 A2!>)! |[Q:1/4=144]"_a tempo" .B.d.d.f.f.F | (G4 F2) | %73
 .B.d.d.f.f.F | (G4 F2) |!<(! [ge'g']2 [ge'g']3 [_ge'_g']!<)! |!<(! [fe'f']2 [cc']2 [^c^c']2!<)! | %77
[Q:1/4=130]"_rit." [dd']2!>(! (f^cdA)!>)! |!mp! (B4 F2) | %79
"^leggiero"[Q:1/4=144]"_a tempo" _GBBcc_G | F4 F2 | _GBBcc_G |!<(! F2 !>![_ABf]2 !>![GBe]2!<)! | %83
 d2 B3 d | c2 c3 d | [DB]6- | [DB]2 [G,G]2 [Ee]2 |:[K:Eb]!mf!"^Grandioso." ([Geg]4 [Bgb]2) | %88
"_cresc." ([Ff][Gg][Aa][Bb][cc'][dd'] |!f! [ege']6) | [Afa]6 |"_dim." ([Ada]4 [Bdb]2) | %92
!mp! ([Gdg]4 [Fdf]2) |!<(! ([^Fe^f]6!<)! |!mf! [Geg]6) | ([Geg]4 [Bgb]2) | %96
"_cresc." ([Ff][Gg][Aa][Bb][cc'][dd'] |!f! [ege']6) | %98
[Q:1/4=130]"_rit." [cfac']2 [Acfa]2 [=Ae^f=a]2 |[Q:1/4=144]"_a tempo" ([Begb]4 [cegc']2) | %100
 [Ada]2 [Ff]3 [Bb] |1!mf! [EGe]6- | [EGe]2 [B,B]2 [Ee]2 :|2!mf! [EGe]6- | [EGe]2 z2 F2 || %105
[K:Bb]!mp! .B.d.d.f.f.F | (G4 F2) | .B.d.d.f.f.F | (G4 F2) |!<(! [ge'g']2 [ge'g']3 [_ge'_g']!<)! | %110
!<(! [fe'f']2 [cc']2 [^c^c']2!<)! |[Q:1/4=130]"_rit."!>(! [dfd']2 [Beb]2 [GBg]2!>)! | %112
!mp! [FBf]4 F2 |[Q:1/4=144]"_a tempo" .B.d.d.f.f.F | (G4 F2) | .B.d.d.f.f.d | %116
[Q:1/4=130]"_rit." (([^Gd]4 [Ac]2)) |[Q:1/4=144]"_a tempo"!<(! [dbd']2 [dbd']3 [_db_d']!<)! | %118
 [cbc']2 [gbg']3 [ac'a'] | [faf']6- | [faf']2[Q:1/4=120]"_rit." (G2 A2) | %121
!mp![Q:1/4=144]"_a tempo" .B.d.d.f.f.F | (G4 F2) | .B.d.d.f.f.F | (G4 F2) | %125
!<(! [ge'g']2 [ge'g']3 [_ge'_g']!<)! |!<(! [fe'f']2 [cc']2 [^c^c']2!<)! | %127
[Q:1/4=130]"_rit." [dd']2!>(! (f^cdA)!>)! | (B4 F2) |[Q:1/4=144]"_a tempo""^leggiero" _GBBcc_G | %130
 F4 F2 | _GBBcc_G |!<(! F2 !>![_ABf]2 !>![GBe]2!<)! | %133
!f![Q:1/4=130]"_rit.         poco    a    poco" d2 B3 d | c2 c3 d | %135
[Q:1/4=144]"_a tempo""^R.H." [DB]ddffb |!8va(! bd'd'f'f'b' | b'!8va)! z z2 [Aef]2 | [Bdfb]2 z2 z2 | %139
!8va(! [d'f'b'd'']2!8va)! z2 z2 | [Bdfb]2 z2 z2 |[Q:1/4=76]"_adagio" [B,E_GB]6 | [B,DFB]6!fine! |] %143
V:2
 (B,,D,^C,D,F,G,) | (B,,D,^C,D,F,G,) | [G,,G,]4 [_G,,_G,]2 | [F,,F,]4 z2 |: %4
 B,,2 [F,B,D]2 [F,B,D]2 |!ped! B,,(G,B,^C D2)!ped-up! | B,,2 [F,B,D]2 [F,B,D]2 | %7
!ped! B,,(G,B,^C D2)!ped-up! | F,,2 [F,A,E]2 [F,A,E]2 | F,,2 [F,A,E]2 [F,A,E]2 | %10
 [B,,,B,,]2"^poco a" [G,,G,]2 [E,,E,]2 |"^poco"!ped! [D,,D,]2 [F,B,D]2 [F,B,D]2!ped-up! | %12
 B,,2 [F,B,D]2 [F,B,D]2 |!ped! B,,(G,B,^C D2)!ped-up! | B,,2 [F,B,D]2 [F,B,D]2 | %15
!ped! (=B,,F,^G,=B, C2)!ped-up! |!ped! [C,,C,]2 [B,C=E]2 [B,CE]2!ped-up! | %17
!ped! [C,,C,]2 [B,C=E]2 [B,CE]2!ped-up! | [F,,F,]2 C,2 A,,2 | F,,2 z2 z2 | B,,2 [F,B,D]2 [F,B,D]2 | %21
!ped! B,,(G,B,^C D2)!ped-up! | B,,2 [F,B,D]2 [F,B,D]2 |!ped! (B,,G,B,^C D2)!ped-up! | %24
!ped! F,,2 [F,A,E]2 [F,A,E]2!ped-up! |!ped! F,,2 [F,A,E]2 [F,A,E]2!ped-up! | %26
 [B,,,B,,]2 [F,B,D]2 [F,B,D]2 | [D,,D,]2 [F,B,D]2 [F,B,D]2 | %28
!ped! [E,,E,]2"^leggiero" [_G,B,E]2 [G,B,E]2!ped-up! |!ped! [D,,D,]2 [F,B,D]2 [F,B,D]2!ped-up! | %30
!ped! [E,,E,]2 [_G,B,E]2 [G,B,E]2!ped-up! | [D,,D,]2 !>![D,,D,]2 !>![E,,E,]2 | %32
!ped! [F,,F,]2 [F,B,D]2 [F,B,D]2!ped-up! |!ped! [F,,F,]2 [F,A,C]2 [F,A,C]2!ped-up! |1 %34
 [B,,B,]2 F,2 D,2 | B,,2 (E,2 C,2) :|2 [B,,B,]2 F,2 D,2 | B,,2 z2 z2 |: %38
!ped! [G,,,G,,]2 [G,B,D]2 [G,B,D]2!ped-up! |!ped! [C,,C,]2 [G,A,CE]2 [G,A,CE]2!ped-up! | %40
!ped! [D,,D,]2 [^F,A,CD]2 [F,A,CD]2!ped-up! |!ped! [G,,,G,,]2 [G,B,D]2 [G,B,D]2!ped-up! | %42
!ped! [G,,,G,,]2 [G,B,D]2 [B,,,B,,]2!ped-up! |!ped! [A,,,A,,]2 [^F,A,D]2 [F,A,D]2!ped-up! | %44
!ped! [A,,,A,,]2 [G,A,^C]2 [G,A,C]2!ped-up! | [D,,D,][_E,,_E,][D,,D,][C,,C,][B,,,B,,][A,,,A,,] | %46
!ped! [G,,,G,,]2 [G,B,D]2 [G,B,D]2!ped-up! |!ped! [C,,C,]2 [G,A,CE]2 [G,A,CE]2!ped-up! | %48
!ped! [D,,D,]2 [^F,A,CD]2 [F,A,CD]2!ped-up! |!ped! [G,,,G,,]2 [G,B,D]2 [G,B,D]2!ped-up! | %50
!ped! [C,,C,]2 [G,CE]2 [G,CE]2!ped-up! |!ped! [D,,D,]2 [G,B,D]2 [G,B,D]2!ped-up! | %52
!ped! [D,,D,]2 [^F,A,CD]2 [F,A,CD]2!ped-up! |1!ped! [G,B,D]6!ped-up! :|2 ([B,D]2 [CE]4) || %55
 B,,2 [F,B,D]2 [F,B,D]2 |!ped! B,,(G,B,^C D2)!ped-up! | B,,2 [F,B,D]2 [F,B,D]2 | %58
!ped! B,,(G,B,^C D2)!ped-up! | F,,2 [F,A,E]2 [F,A,E]2 | F,,2 [F,A,E]2 [F,A,E]2 | %61
 [B,,,B,,]2 [G,,G,]2 [E,,E,]2 | [D,,D,]2 [F,B,D]2 [F,B,D]2 | B,,2 [F,B,D]2 [F,B,D]2 | %64
!ped! B,,(G,B,^C D2)!ped-up! | B,,2 [F,B,D]2 [F,B,D]2 |!ped! (=B,,F,^G,=B, C2)!ped-up! | %67
 [C,,C,]2 [B,C=E]2 [B,CE]2 | [C,,C,]2 [B,C=E]2 [B,CE]2 | [F,,F,]2 C,2 A,,2 | F,,2 z2 z2 | %71
 B,,2 [F,B,D]2 [F,B,D]2 |!ped! B,,(G,B,^C D2)!ped-up! | B,,2 [F,B,D]2 [F,B,D]2 | %74
!ped! B,,(G,B,^C D2)!ped-up! | F,,2 [F,A,E]2 [F,A,E]2 | F,,2 [F,A,E]2 [F,A,E]2 | %77
 [B,,,B,,]2 [F,B,D]2 [F,B,D]2 | [D,,D,]2 [F,B,D]2 [F,B,D]2 | [E,,E,]2 [_G,B,E]2 [G,B,E]2 | %80
 [D,,D,]2 [F,B,D]2 [F,B,D]2 |!ped! [E,,E,]2 [_G,B,E]2 [G,B,E]2!ped-up! | %82
 [D,,D,]2 !>![D,,D,]2 !>![E,,E,]2 |!ped! [F,,F,]2 [F,B,D]2 [F,B,D]2!ped-up! | %84
!ped! [F,,F,]2 [F,A,C]2 [F,A,C]2!ped-up! | [B,,B,]2 F,2 D,2 | B,,2 z2 z2 |: %87
[K:Eb]!ped! [E,,E,]2 [G,B,E]2 [G,B,E]2!ped-up! |!ped! [D,,D,]2 [A,B,D]2 [A,B,D]2!ped-up! | %89
!ped! [C,,C,]2 [G,CE]2 [G,CE]2!ped-up! |!ped! [F,,F,]2 [A,CF]2 [A,CF]2!ped-up! | %91
!ped! [B,,,B,,]2 [A,B,D]2 [A,B,D]2!ped-up! |!ped! [B,,,B,,]2 [A,B,D]2 [A,B,D]2!ped-up! | %93
!ped! [E,,E,]2 [=A,CE]2 [A,CE]2!ped-up! |!ped! [E,,E,]2 [B,E]2 [B,E]2!ped-up! | %95
!ped! [E,,E,]2 [G,B,E]2 [G,B,E]2!ped-up! |!ped! [D,,D,]2 [A,B,D]2 [A,B,D]2!ped-up! | %97
!ped! [C,,C,]2 [G,CE]2 [G,CE]2!ped-up! |!ped! [A,,,A,,]2 [C,,C,]2 [_C,,_C,]2!ped-up! | %99
!ped! [B,,,B,,]2 [G,B,E]2 [G,B,E]2!ped-up! |!ped! [B,,,B,,]2 [A,B,D]2 [A,B,D]2!ped-up! |1 %101
 [E,,E,]2 B,,2 G,,2 | E,,2 z2 z2 :|2 [E,,E,]2 B,,2 G,,2 | E,,2 z2 z2 || %105
[K:Bb] B,,2 [F,B,D]2 [F,B,D]2 |!ped! B,,(G,B,^C D2)!ped-up! | B,,2 [F,B,D]2 [F,B,D]2 | %108
!ped! B,,(G,B,^C D2)!ped-up! | F,,2 [F,A,E]2 [F,A,E]2 | F,,2 [F,A,E]2 [F,A,E]2 | %111
 [B,,,B,,]2 [G,,G,]2"^poco   a   poco" [E,,E,]2 | [D,,D,]2 [F,B,D]2 [F,B,D]2 | %113
 B,,2 [F,B,D]2 [F,B,D]2 |!ped! B,,(G,B,^C D2)!ped-up! | B,,2 [F,B,D]2 [F,B,D]2 | %116
!ped! (=B,,F,^G,=B, C2)!ped-up! | [C,,C,]2 [B,C=E]2 [B,CE]2 | [C,,C,]2 [B,C=E]2 [B,CE]2 | %119
 [F,,F,]2 C,2 A,,2 | F,,2 z2 z2 | B,,2 [F,B,D]2 [F,B,D]2 |!ped! B,,(G,B,^C D2)!ped-up! | %123
 B,,2 [F,B,D]2 [F,B,D]2 |!ped! B,,(G,B,^C D2)!ped-up! | F,,2 [F,A,E]2 [F,A,E]2 | %126
 F,,2 [F,A,E]2 [F,A,E]2 | [B,,,B,,]2 [F,B,D]2 [F,B,D]2 | [D,,D,]2 [F,B,D]2 [F,B,D]2 | %129
 [E,,E,]2 [_G,B,E]2 [G,B,E]2 | [D,,D,]2 [F,B,D]2 [F,B,D]2 | [E,,E,]2 [_G,B,E]2 [G,B,E]2 | %132
 [D,,D,]2 !>![D,,D,]2 !>![E,,E,]2 | [F,,F,]2 [F,B,D]2 [F,B,D]2 | [F,,F,]2 [F,A,C]4 | %135
"_L.H." [B,,B,][I:staff -1]FFBBd | DFFBBd | d[I:staff +1] z z2 [F,F]2 | [B,,B,]2 z2 z2 | %139
[I:staff -1] [B,DF]2[I:staff +1] z2 z2 | [B,DF]2 z2 z2 | [E,,,E,,]6 | [B,,,B,,]6 |] %143
V:3
 x6 | x6 | [DG]4 [CE]2 | [CE]4 z2 |: x6 | x6 | x6 | x6 | x6 | x6 | x6 | x6 | x6 | x6 | x6 | x6 | %16
 x6 | x6 | x6 | x2 E4 | .D2 z2 z2 | x6 | x6 | x6 | x6 | x6 | x6 | x6 | x6 | x6 | x6 | x6 | [FB]6 | %33
 [EA]2 [EA]4 |1 x6 | x6 :|2 x6 | x6 |: x6 | x6 | x6 | x6 | x6 | x6 | x6 | x6 | x6 | x6 | x6 | x6 | %50
 x6 | x6 | x6 |1 x6 :|2 x6 || x6 | x6 | x6 | x6 | x6 | x6 | x6 | x6 | x6 | x6 | x6 | x6 | x6 | x6 | %69
 x6 | x2 E4 | D2 z2 z2 | x6 | x6 | x6 | x6 | x6 | x6 | x6 | x6 | x6 | x6 | x6 | [FB]6 | %84
 [EA]2 [EA]4 | x6 | x6 |:[K:Eb] x6 | x6 | x6 | x6 | x6 | x6 | x6 | x6 | x6 | x6 | x6 | x6 | x6 | %100
 x2 A4 |1 x6 | x6 :|2 x6 | x6 ||[K:Bb] x6 | x6 | x6 | x6 | x6 | x6 | x6 | x6 | x6 | x6 | x6 | x6 | %117
 x6 | x6 | x6 | x2 E4 | D2 z2 z2 | x6 | x6 | x6 | x6 | x6 | x6 | x6 | x6 | x6 | x6 | x6 | [FB]6 | %134
 [EA]2 [EA]4 | x6 |!8va(! x6 | x!8va)! x5 | x6 |!8va(! x2!8va)! x4 | x6 | x6 | x6 |] %143
V:4
 x6 | x6 | x6 | x6 |: x6 | B,,6 | x6 | B,,6 | x6 | x6 | x6 | x6 | x6 | B,,6 | x6 | x6 | x6 | x6 | %18
 x6 | x6 | x6 | B,,6 | x6 | B,,6 | x6 | x6 | x6 | x6 | x6 | x6 | x6 | x6 | x6 | x6 |1 x6 | x6 :|2 %36
 x6 | x6 |: x6 | x6 | x6 | x6 | x6 | x6 | x6 | x6 | x6 | x6 | x6 | x6 | x6 | x6 | x6 |1 x6 :|2 %54
 G,4 =F,2 || x6 | B,,6 | x6 | B,,6 | x6 | x6 | x6 | x6 | x6 | B,,6 | x6 | x6 | x6 | x6 | x6 | x6 | %71
 x6 | B,,6 | x6 | B,,6 | x6 | x6 | x6 | x6 | x6 | x6 | x6 | x6 | x6 | x6 | x6 | x6 |:[K:Eb] x6 | %88
 x6 | x6 | x6 | x6 | x6 | x6 | x6 | x6 | x6 | x6 | x6 | x6 | x6 |1 x6 | x6 :|2 x6 | x6 || %105
[K:Bb] x6 | B,,6 | x6 | B,,6 | x6 | x6 | x6 | x6 | x6 | B,,6 | x6 | x6 | x6 | x6 | x6 | x6 | x6 | %122
 B,,6 | x6 | B,,6 | x6 | x6 | x6 | x6 | x6 | x6 | x6 | x6 | x6 | x6 | x6 | x6 | x6 | x6 | x6 | x6 | %141
 x6 | x6 |] %143

